X:1
T:- # -
T:Choralvorspiel zu "O komm, o komm, du Morgenstern"
%%score 1 2 3 4
L:1/8
M:4/4
K:G
V:1 treble nm="Violine 1" snm="Vl.1"
V:2 treble nm="Violine 2" snm="Vl.2"
V:3 treble nm="Viola" snm="Vla."
V:4 bass nm="Cello" snm="Vc."
V:1
 ed | e4 z2 dc | d4 z2 cd | BdBG AcA"^Martin Böttger 5.10.2016"F | G2 z2 z2 ed | e4 z2 dc | %6
 d4 z2 cd | BdBG E2 z2 | z4 z2 de | c2 cd B2 Bc | B2 z2 z2 B2 | cAcd e2 dc | B2 z2 z2 cd | %13
 B4 z2 ed | e4 z2 dc | d4 z2 cd | BdBG AcAF | G2 z2 z2 ed | e4 z2 dc | d4 z2 cd | %20
 BdBG E2"^c. f." d2 | d6 B2 | B6 B2 | A2 c2 B2 A2 | G4 z2 ed | e4 z2 dc | d4 z2 cB | c4 z2 ed | %28
 e6 |] %29
V:2
 z2 | z2 GF G4 | z2 FE F4 | z2 DE F2 CD | B,2 CD E2 z2 | z2 GF G4 | z2 FE F4 | D4 z2 FE | %8
 GEGB d2 z2 | z2 AB G2 GA | GBGE C2 z2 | z4 z2 A2 | BdBG D2 z2 | z2 FE F2 z2 | z2 GF G4 | %15
 z2 FE F4 | z2 DE F2 CD | B,2 CD E2 z2 | z2 GF G4 | z2 FE F4 | G4 z2 F2 | GBGE D2 ^D2 | %22
 EGEC B,2 E2 | E3 F G3 F | G4 z4 | z2 GF G2 z2 | z2 AG A2 FG | GcGE AcAF | G6 |] %29
V:3
 z2 | z8 | z8 | z8 | z4 z2"^c. f." E,2 | G,2 B,2 B,2 B,2 | A,2 C2 B,2 A,2 | G,6 A,2 | %8
 B,2 G,2 E,2 G,2 | A,2 F,2 E,2 D,2 | E,4 z2 G,2 | A,2 E,2 E,2 F,2 | G,4 F,2 E,2 | D,6 z2 | z8 | %15
 z8 | z8 | z4 z2 G,2 | A,2 B,2 B,2 B,2 | A,2 C2 B,2 A,2 | G,4 z2 A,2 | B,6 A,2 | G,6 G,2 | %23
 A,4 G,2 A,2 | B,4 z2"^c. f." A,2 | B,2 G,2 E,2 G,2 | A,2 F,2 E,2 D,2 | E,8- | E,6 |] %29
V:4
 z2 | E,4 E,2 B,,2 | D,4 D,2 F,2 | G,4 D,4 | E,4 z2 z2 | E,4 E,2 B,,2 | D,4 D,2 F,2 | G,6 z2 | %8
 z4 z2 E,2 | A,,2 z2 z2 B,,2 | E,,4 z2 E,2 | A,,4 z2 D,2 | G,,4 z2 A,,2 | B,,6 E,2 | E,4 E,2 B,,2 | %15
 D,4 D,2 F,2 | G,4 D,4 | E,4 z4 | E,4 E,2 B,,2 | D,4 D,2 D,2 | G,,4 z2 D,2 | G,,6 B,,2 | E,6 D,2 | %23
 C,4 D,4 | G,,2 G,F, G,2 z2 | E,4 E,2 B,,2 | D,4 z2 D,2 | C,4 A,,4 | E,,6 |] %29

